Flat Remix Dark/apps/scalable/deja-dup.svg

<svg xmlns="http://www.w3.org/2000/svg" width="384pt" height="384pt" version="1.1" viewBox="0 0 384 384">
 <g>
  <path style="fill:rgb(100%,100%,100%)" d="M 350.390625 192.25 C 350.390625 104.621094 279.3125 33.585938 191.632812 33.585938 C 103.953125 33.585938 32.871094 104.621094 32.871094 192.25 C 32.871094 279.878906 103.953125 350.914062 191.632812 350.914062 C 279.3125 350.914062 350.390625 279.878906 350.390625 192.25 Z M 350.390625 192.25"/>
  <path style="fill:rgb(20%,20%,20%);stroke-width:10.00063;stroke-linejoin:round;stroke:rgb(35.686275%,35.686275%,35.686275%)" d="M 235.161458 480.109375 C 203.744792 477.348958 169.291667 466.177083 141.651042 449.78125 C 80.994792 413.802083 41.817708 354.171875 32.583333 283.786458 C 29.463542 259.994792 31.046875 228.447917 36.526042 205.291667 C 42.3125 180.84375 54.401042 152.348958 67.255208 132.864583 C 105.036458 75.598958 165.729167 38.822917 234.09375 31.765625 C 249.348958 30.192708 277.635417 31.140625 292.84375 33.739583 C 376.739583 48.083333 443.864583 105.838542 470.46875 186.567708 C 477.661458 208.380208 481 230.421875 481 256.036458 C 481 283.307292 477.208333 305.869792 468.333333 331.421875 C 461.067708 352.34375 445.364583 380.427083 431.416667 397.442708 C 383.302083 456.140625 310.666667 486.734375 235.161458 480.109375 Z M 283.505208 394.484375 C 297.609375 391.619792 306.666667 388.505208 319.546875 382.09375 C 342.953125 370.442708 363.192708 351.78125 377.171875 328.958333 C 392.348958 304.192708 399.744792 272.25 396.921875 243.71875 C 393.390625 208.088542 379.151042 178.421875 353.916667 154.130208 C 333.984375 134.942708 309.994792 122.390625 282.755208 116.901042 C 270.453125 114.421875 240.90625 114.427083 229.244792 116.911458 C 200.364583 123.067708 176.223958 135.989583 156.270833 155.979167 C 132.03125 180.270833 117.885417 210.598958 115.109375 244.213542 L 114.380208 253.083333 L 102.067708 253.572917 C 90.984375 254.015625 89.713542 254.255208 89.395833 255.932292 C 88.916667 258.416667 129.197917 298.901042 132.151042 298.901042 C 134.6875 298.901042 176.416667 257.286458 175.786458 255.380208 C 175.453125 254.385417 171.963542 254 161.380208 253.791667 L 147.411458 253.520833 L 147.411458 250.270833 C 147.411458 239.895833 153.161458 218.3125 159 206.765625 C 169.875 185.270833 191.552083 165 213.364583 155.921875 C 228.0625 149.807292 237.963542 147.859375 254.885417 147.760417 C 271.020833 147.661458 276.40625 148.432292 289.885417 152.770833 C 306.541667 158.135417 319.822917 166.416667 332.796875 179.536458 C 354.286458 201.265625 364.328125 225.625 364.328125 256.015625 C 364.328125 275.067708 360.817708 289.6875 352.338542 306 C 341.375 327.067708 324.651042 343.223958 303.140625 353.515625 C 261.416667 373.479167 213.744792 365.734375 180.041667 333.515625 C 176.572917 330.192708 173.375 327.479167 172.947917 327.479167 C 172.515625 327.479167 167.255208 331.791667 161.265625 337.0625 C 154.447917 343.052083 150.369792 347.354167 150.369792 348.552083 C 150.369792 352.739583 172.005208 370.838542 187.34375 379.484375 C 201.536458 387.484375 222.5 394.354167 238.953125 396.390625 C 250.432292 397.8125 271.578125 396.911458 283.505208 394.484375 Z M 283.505208 394.484375" transform="matrix(0.75,0,0,0.75,0,0)"/>
 </g>
</svg>

<svg xmlns="http://www.w3.org/2000/svg" width="512" height="512" version="1.1" viewBox="0 0 512 512">
 <ellipse style="fill:#ffffff" cx="255.509" cy="256.334" rx="211.679" ry="211.552"/>
 <path style="fill:#333333;stroke-width:10.00063038;stroke:#5b5b5b;stroke-linejoin:round" d="M 235.16315,480.10846 C 203.74545,477.3508 169.29196,466.17709 141.64927,449.78068 80.995643,413.80371 41.815788,354.17333 32.583285,283.78608 29.462509,259.99368 31.04704,228.45013 36.52641,205.28989 42.309953,180.84396 54.399575,152.35081 67.257068,132.86306 105.03759,75.600135 165.72737,38.823971 234.09282,31.765637 c 15.2574,-1.575236 43.54379,-0.623985 58.75079,1.975762 83.89809,14.342955 151.0229,72.095491 177.62703,152.825911 7.18871,21.8142 10.52936,43.85512 10.52936,69.47064 0,27.27152 -3.79049,49.83309 -12.66484,75.38303 -7.26698,20.92219 -22.97092,49.00594 -36.9182,66.02175 -48.11251,58.69763 -120.74827,89.29317 -196.25381,82.66573 z m 48.33982,-85.62218 c 14.10676,-2.8661 23.16501,-5.98029 36.04376,-12.39174 23.40864,-11.65354 43.64486,-30.31283 57.62773,-53.13706 15.17194,-24.76512 22.57201,-56.70826 19.74633,-85.23702 -3.52927,-35.63222 -17.76939,-65.2985 -43.00353,-89.58874 -19.93518,-19.18951 -43.92319,-31.73926 -71.16044,-37.22884 -12.30191,-2.47941 -41.85195,-2.47427 -53.50961,0.009 -28.88379,6.1535 -53.02431,19.07804 -72.97381,39.06933 -24.23996,24.29074 -38.38863,54.6185 -41.1623,88.23164 l -0.73181,8.86859 -12.3138,0.4927 c -11.078848,0.44329 -12.349546,0.67955 -12.670407,2.35585 -0.476015,2.4874 39.803217,42.97296 42.753527,42.97296 2.54089,0 44.27058,-41.61744 43.63774,-43.52035 -0.33142,-0.99656 -3.82276,-1.38157 -14.4069,-1.58872 l -13.96947,-0.2734 0,-3.2482 c 0,-10.37794 5.74893,-31.95758 11.58974,-43.50415 10.87356,-21.49568 32.55083,-41.76955 54.365,-50.84536 14.697,-6.11471 24.59771,-8.06126 41.51824,-8.16279 16.13793,-0.0969 21.5253,0.67464 35.00267,5.01231 16.65736,5.36117 29.93759,13.64393 42.91289,26.7644 21.48661,21.72701 31.52942,46.08731 31.52942,76.47922 0,19.05246 -3.50795,33.67392 -11.99164,49.98223 -10.9605,21.06955 -27.68569,37.22386 -49.19481,47.51566 -41.72334,19.96398 -89.39571,12.21884 -123.09795,-19.99922 -3.47219,-3.31928 -6.66624,-6.03506 -7.09789,-6.03506 -0.43164,0 -5.68822,4.31166 -11.68125,9.58148 -6.81613,5.99355 -10.89646,10.29569 -10.89646,11.48878 0,4.1873 21.6362,22.2892 36.97466,30.9348 14.19317,8.00006 35.15701,14.8671 51.61188,16.90633 11.47936,1.42262 32.62123,0.51877 44.54849,-1.9045 z"/>
</svg>
